src/toolbox.svg

<svg xmlns="http://www.w3.org/2000/svg" viewBox="0 0 512 512"><!--! Font Awesome Pro 6.4.0 by @fontawesome - https://fontawesome.com License - https://fontawesome.com/license (Commercial License) Copyright 2023 Fonticons, Inc.--><path d="M176 88v40h160V88c0-4.4-3.6-8-8-8H184c-4.4 0-8 3.6-8 8zm-48 40V88c0-30.9 25.1-56 56-56h144c30.9 0 56 25.1 56 56v40h28.1c12.7 0 24.9 5.1 33.9 14.1l51.9 51.9c9 9 14.1 21.2 14.1 33.9V304H384v-16c0-17.7-14.3-32-32-32s-32 14.3-32 32v16H192v-16c0-17.7-14.3-32-32-32s-32 14.3-32 32v16H0v-76.1C0 215.2 5.1 203 14.1 194L66 142.1c9-9 21.2-14.1 33.9-14.1H128zM0 416v-80h128v16c0 17.7 14.3 32 32 32s32-14.3 32-32v-16h128v16c0 17.7 14.3 32 32 32s32-14.3 32-32v-16h128v80c0 35.3-28.7 64-64 64H64c-35.3 0-64-28.7-64-64z" style="fill:#f9f9f9;fill-opacity:1"/></svg>

<?xml version="1.0" encoding="UTF-8" standalone="no"?>
<svg
   viewBox="0 0 512 512"
   version="1.1"
   id="svg1"
   sodipodi:docname="toolbox.svg"
   inkscape:version="1.3 (0e150ed6c4, 2023-07-21)"
   xmlns:inkscape="http://www.inkscape.org/namespaces/inkscape"
   xmlns:sodipodi="http://sodipodi.sourceforge.net/DTD/sodipodi-0.dtd"
   xmlns="http://www.w3.org/2000/svg"
   xmlns:svg="http://www.w3.org/2000/svg">
  <defs
     id="defs1" />
  <sodipodi:namedview
     id="namedview1"
     pagecolor="#ffffff"
     bordercolor="#000000"
     borderopacity="0.25"
     inkscape:showpageshadow="2"
     inkscape:pageopacity="0.0"
     inkscape:pagecheckerboard="0"
     inkscape:deskcolor="#d1d1d1"
     inkscape:zoom="1.5878906"
     inkscape:cx="256"
     inkscape:cy="256"
     inkscape:window-width="2560"
     inkscape:window-height="1009"
     inkscape:window-x="-8"
     inkscape:window-y="364"
     inkscape:window-maximized="1"
     inkscape:current-layer="svg1" />
  <!--! Font Awesome Pro 6.4.0 by @fontawesome - https://fontawesome.com License - https://fontawesome.com/license (Commercial License) Copyright 2023 Fonticons, Inc. -->
  <path
     d="M176 88v40H336V88c0-4.4-3.6-8-8-8H184c-4.4 0-8 3.6-8 8zm-48 40V88c0-30.9 25.1-56 56-56H328c30.9 0 56 25.1 56 56v40h28.1c12.7 0 24.9 5.1 33.9 14.1l51.9 51.9c9 9 14.1 21.2 14.1 33.9V304H384V288c0-17.7-14.3-32-32-32s-32 14.3-32 32v16H192V288c0-17.7-14.3-32-32-32s-32 14.3-32 32v16H0V227.9c0-12.7 5.1-24.9 14.1-33.9l51.9-51.9c9-9 21.2-14.1 33.9-14.1H128zM0 416V336H128v16c0 17.7 14.3 32 32 32s32-14.3 32-32V336H320v16c0 17.7 14.3 32 32 32s32-14.3 32-32V336H512v80c0 35.3-28.7 64-64 64H64c-35.3 0-64-28.7-64-64z"
     id="path1"
     style="fill:#f9f9f9;fill-opacity:1" />
</svg>
